!!!OTL: Winterrosen Ein Maedchen wollte Wasser schoepfen
!!!ARE: Europa, Mitteleuropa, Deutschland (BRD), Rheinland, Bessenich
!!!YOR: 7, S. 60
!!    1926 aufgezeichnet
!!!SCT: Q0145D
!!!YEM: Copyright 1995, estate of Helmut Schaffrath.
**kern
*ICvox
*Ivox
*M2/4
*k[]
*C:
{8g
=1
8a
8g
8g
8g
=2
8a
8g
8g
16g}
{16g
=3
8a
8g
8f
8e
=4
4e
4d}
=5
{4c
4e
=6
2g
=7
4g
4b
=8
4.dd}
{8cc
=9
4.b
8a
=10
4.g
8f
=11
4f
8e}
==
!!!AGN: Ballade, Verfuehrung, verlorene Ehre
!! Refrain auf sinnfreie Silben in der dritten Zeile.
!!!ONB: ESAC (Essen Associative Code) Database: BALLADE
!!!AMT: simple duple
!!!AIN: vox
!!!EED: Helmut Schaffrath
!!!EEV: 1.0
*-
